Obsidian/actions/22s/backup.svg

<svg height="22" width="22" xmlns="http://www.w3.org/2000/svg"><path d="m11 3a8 8 0 0 0 -8 8 8 8 0 0 0 8 8 8 8 0 0 0 8-8 8 8 0 0 0 -8-8zm-.072266 3a5 5 0 0 1 3.607422 1.4648438l.707032-.7070313.353515 1.7675781.353516 1.7675784-.00586-.001953-.394531-.078125-1.77539-.3515629a3 3 0 0 0 -.001954-.0039062l-1.357422-.2714844.707032-.7070313a3 3 0 0 0 -4.2421878 0 3 3 0 0 0 -.0097656.0097657l-2.1679687-.4296875a5 5 0 0 1 .7636719-.9941406 5 5 0 0 1 3.4628902-1.4648438zm-4.8769528 5.707031.0058594.001953.3945313.078125 1.7753906.351563a3 3 0 0 0 .0019531.003906l1.3574219.271484-.7070313.707032a3 3 0 0 0 4.2421878 0 3 3 0 0 0 .009765-.009766l2.167969.429688a5 5 0 0 1 -.763672.99414 5 5 0 0 1 -7.0703122 0l-.7070313.707032-.3535156-1.767579z" fill="#bebebe"/></svg>

<svg xmlns="http://www.w3.org/2000/svg" width="22" height="22" version="1.1">
 <defs>
  <style id="current-color-scheme" type="text/css">
   .ColorScheme-Text { color:#bebebe; } .ColorScheme-Highlight { color:#4285f4; }
  </style>
 </defs>
 <path style="fill:currentColor" class="ColorScheme-Text" d="M 11 3 A 8 8 0 0 0 3 11 A 8 8 0 0 0 11 19 A 8 8 0 0 0 19 11 A 8 8 0 0 0 11 3 z M 10.927734 6 A 5 5 0 0 1 14.535156 7.4648438 L 15.242188 6.7578125 L 15.595703 8.5253906 L 15.949219 10.292969 L 15.943359 10.291016 L 15.548828 10.212891 L 13.773438 9.8613281 A 3 3 0 0 0 13.771484 9.8574219 L 12.414062 9.5859375 L 13.121094 8.8789062 A 3 3 0 0 0 8.8789062 8.8789062 A 3 3 0 0 0 8.8691406 8.8886719 L 6.7011719 8.4589844 A 5 5 0 0 1 7.4648438 7.4648438 A 5 5 0 0 1 10.927734 6 z M 6.0507812 11.707031 L 6.0566406 11.708984 L 6.4511719 11.787109 L 8.2265625 12.138672 A 3 3 0 0 0 8.2285156 12.142578 L 9.5859375 12.414062 L 8.8789062 13.121094 A 3 3 0 0 0 13.121094 13.121094 A 3 3 0 0 0 13.130859 13.111328 L 15.298828 13.541016 A 5 5 0 0 1 14.535156 14.535156 A 5 5 0 0 1 7.4648438 14.535156 L 6.7578125 15.242188 L 6.4042969 13.474609 L 6.0507812 11.707031 z"/>
</svg>
